X:83
T:Priest in his Boots ThoH.083, The
Q:3/8=100
M:6/8
L:1/8
B:Thompson's Compleat Collection of 120 Favourite Hornpipes.
Z:Village Music Project, Simon Wilson 2016
O:England.
K:G
G2GG2G|GBG FED|G2G GBG|FDF ABc|
{e}d2B{d}c2G|{c}B2 G FED|G2c (B/c/d)B|cAFG3:|
|:GDG GDG|AFA AFA|BGB BGB|cAc cAc|
{e}d2B{d}c2A|{c}B2G FED|G2c (B/c/d)B|cAFG3:|

